assets/img/marker_walker_orange.svg

<?xml version="1.0" encoding="UTF-8" standalone="no"?>
<svg
   xmlns:dc="http://purl.org/dc/elements/1.1/"
   xmlns:cc="http://creativecommons.org/ns#"
   xmlns:rdf="http://www.w3.org/1999/02/22-rdf-syntax-ns#"
   xmlns:svg="http://www.w3.org/2000/svg"
   xmlns="http://www.w3.org/2000/svg"
   xmlns:sodipodi="http://sodipodi.sourceforge.net/DTD/sodipodi-0.dtd"
   xmlns:inkscape="http://www.inkscape.org/namespaces/inkscape"
   width="100%"
   height="100%"
   viewBox="0 0 584 908"
   version="1.1"
   xml:space="preserve"
   style="fill-rule:evenodd;clip-rule:evenodd;stroke-linejoin:round;stroke-miterlimit:2;"
   id="svg4"
   sodipodi:docname="marker_walker_orange.svg"
   inkscape:version="1.0.2-2 (e86c870879, 2021-01-15)"><metadata
   id="metadata10"><rdf:RDF><cc:Work
       rdf:about=""><dc:format>image/svg+xml</dc:format><dc:type
         rdf:resource="http://purl.org/dc/dcmitype/StillImage" /></cc:Work></rdf:RDF></metadata><defs
   id="defs8" /><sodipodi:namedview
   pagecolor="#ffffff"
   bordercolor="#666666"
   borderopacity="1"
   objecttolerance="10"
   gridtolerance="10"
   guidetolerance="10"
   inkscape:pageopacity="0"
   inkscape:pageshadow="2"
   inkscape:window-width="1920"
   inkscape:window-height="1017"
   id="namedview6"
   showgrid="false"
   inkscape:zoom="0.80947137"
   inkscape:cx="292"
   inkscape:cy="454"
   inkscape:window-x="-8"
   inkscape:window-y="-8"
   inkscape:window-maximized="1"
   inkscape:current-layer="svg4" />
    <path
   style="fill:rgb(241,135,62);"
   d="M 291.583,907.671 C 291.388,907.382 0,476.351 0,291.583 0,130.654 130.654,0 291.583,0 c 160.934,0 291.588,130.654 291.588,291.583 0,184.768 -291.393,615.799 -291.588,616.088 z"
   id="path2" />
<path
   style="fill:#ffffff;fill-opacity:1"
   d="m 332.65,558.576 c 0,-10e-4 0,-10e-4 -10e-4,0 z"
   id="path839" /><path
   style="fill:#ffffff;fill-opacity:1"
   d="m 332.65,558.576 c 0,0.021 -0.24,0.616 -0.367,1.338 -0.13,0.756 -0.222,1.69 -0.285,2.587 -0.085,1.282 -0.081,1.859 -0.091,2.45 l 19.443,1.808 c 0,0 0.252,0.045 0.904,-0.154 0.654,-0.195 1.603,-0.642 2.684,-1.723 1.386,-1.408 1.935,-2.123 2.902,-3.857 0.514,-8.658 0.378,-13.619 0.079,-16.658 -0.303,-3.061 -0.772,-4.245 -0.904,-5.836 -0.766,-5.871 -0.561,-13.253 -0.561,-13.253 l 0.012,-0.132 c 1.225,-8.171 5.46,-14.255 10.741,-20.268 l 0.35,-0.39 5.001,0.178 -0.842,1.557 c -3.027,5.619 -5.167,10.774 -5.167,17.51 0,3.639 1.78,8.206 1.797,8.24 1.739,3.404 3.736,8.057 5.825,10.855 l -0.022,-0.028 c 1.378,1.727 1.819,4.194 1.768,6.85 -0.057,2.654 -0.642,5.521 -1.62,8.079 -0.252,0.658 -0.739,1.041 -1.207,1.317 -0.465,0.274 -0.956,0.457 -1.414,0.589 -0.447,0.132 -0.526,0.12 -0.847,0.177 -0.057,0.486 -0.149,1.093 -0.189,2.221 -0.029,0.76 -0.023,1.533 0.052,2.087 0.035,0.276 0.086,0.498 0.126,0.607 0.011,0.029 0.011,0.023 0.017,0.029 -0.035,-0.029 0.292,0.16 0.778,0.297 0.492,0.138 1.162,0.282 1.934,0.402 1.551,0.246 3.532,0.433 5.546,0.537 2.008,0.109 4.062,0.132 5.767,0.057 1.677,-0.074 3.05,-0.303 3.479,-0.474 1.786,-0.996 3.245,-2.713 4.875,-4.848 l 0.041,-0.057 0.046,-0.045 c 1.361,-1.402 1.859,-1.998 2.042,-2.764 0.183,-0.766 0.057,-2.066 -0.297,-4.681 -0.355,-2.626 -2.02,-7.113 -2.793,-9.437 -1.768,-5.298 -3.268,-12.119 -1.986,-16.76 1.203,-4.361 5.757,-15.399 7.943,-20.343 l 0.275,-0.624 0.687,-0.028 c 1.894,-0.074 4.029,-0.234 5.819,-0.474 1.534,-0.213 2.547,-0.539 3.062,-0.744 -0.395,-13.533 -1.477,-28.56 -3.513,-41.927 l 2.008,-0.762 c 4.801,7.49 7.502,17.962 10.621,27.067 0.663,0.126 4.944,0.961 8.309,1.339 l 0.978,0.108 v 11.926 c 2.255,0.034 3.993,-0.236 5.596,-0.894 1.733,-0.72 3.57,-1.945 5.917,-3.455 0.012,-0.15 0.023,-0.241 0.028,-0.544 0.017,-0.967 -0.028,-2.821 -0.274,-6.186 -2.77,-30.499 -15.628,-64.027 -43.066,-83.287 -0.698,-0.309 -1.191,-0.796 -1.545,-1.203 -0.39,-0.451 -0.636,-0.858 -0.636,-0.858 l -0.177,-0.304 0.464,-6.362 0.818,-0.167 c 4.835,-0.961 8.692,-2.008 13.235,-3.672 -0.022,-0.573 -0.102,-2.428 -0.102,-6.061 0,-4.989 0.927,-7.805 1.029,-8.092 1.363,-5.389 -0.08,-10.883 -3.512,-16.09 -8.246,-8.018 -17.946,-11.21 -31.387,-7.76 -5.671,1.579 -10.759,7.187 -13.242,13.036 -3.353,11.135 0.949,19.489 4.629,22.957 l 0.544,0.51 -0.274,0.693 c 0,0 -1.191,3.107 -2.203,4.823 -1.014,1.717 -3.308,4.509 -3.308,4.509 l -0.607,0.751 -0.824,-0.504 c -3.416,-2.117 -7.634,-5.958 -10.517,-10.845 -4.818,-8.171 -7.606,-18.735 -10.008,-26.568 l -0.041,-0.143 -0.006,-0.154 c -0.079,-3.623 -0.376,-7.131 -1.247,-9.882 -0.87,-2.747 -2.226,-4.665 -4.498,-5.546 l -0.229,-0.091 -0.16,-0.172 c 0,0 -2.935,-3.028 -3.668,-7.81 -1.425,-9.3 -3.41,-19.771 -8.669,-57.545 -2.65,-17.733 -5.865,-35.678 -11.044,-58.659 v -0.016 l -0.006,-0.018 c -2.672,-14.111 -4.229,-21.802 -5.344,-26.266 -1.122,-4.463 -1.728,-5.556 -2.679,-6.895 -0.457,-0.64 -2.105,-1.859 -3.57,-2.735 -1.459,-0.87 -2.729,-1.493 -2.753,-1.498 l -31.015,-11.846 v -10.374 l 1.111,0.012 c 11.869,0.102 21.962,-5.541 23.106,-6.193 -4.086,-9.167 -2.306,-17.533 -0.412,-25.293 1.969,-8.067 3.875,-15.478 -0.331,-23.403 l -0.006,-0.012 -0.006,-0.005 c -5.871,-11.651 -17.064,-15.868 -29.069,-16.447 -0.561,-0.01 -1.122,-0.01 -1.682,-0.004 -8.417,0.142 -16.669,2.54 -22.706,7.192 -6.444,4.972 -10.443,12.434 -9.671,22.878 v 0.011 l 0.006,0.012 c 0.114,2.192 0.315,5.149 0.24,8.016 -0.081,2.873 -0.372,5.655 -1.516,7.691 l -0.04,0.075 -0.058,0.068 c -2.667,3.387 -4.915,5.905 -5.522,6.593 4.36,4.605 10.993,9.429 16.955,12.943 l 0.573,0.337 -0.453,10.107 -37.079,15.638 c 0,0 -0.006,0 -0.006,0.005 -2.792,1.288 -4.527,2.747 -5.998,6.97 l -0.005,0.012 L 146,332.838 c 0.738,0.497 2.438,1.591 4.91,2.54 l 0.824,0.315 -0.131,0.875 c -0.206,1.368 -0.95,3.079 -1.638,4.589 -0.663,1.465 -1.252,2.593 -1.292,2.668 v 0.006 c -2.37,5.71 -1.344,14.625 -0.521,21.269 1.258,3.038 2.587,4.526 4.727,6.334 4.903,0.726 9.459,-0.652 12.984,-2.575 l 0.693,-13.482 c -0.351,-0.274 -0.745,-0.514 -1.254,-0.784 -0.321,-0.165 -0.67,-0.342 -1.001,-0.744 -0.332,-0.4 -0.486,-1.138 -0.309,-1.687 -0.012,0.033 0.085,-0.418 0.148,-0.904 0.063,-0.487 0.132,-1.087 0.195,-1.666 0.12,-1.15 0.212,-2.221 0.212,-2.221 l 0.073,-0.868 5.334,-0.762 c 8.069,-23.421 15.971,-45.475 27.181,-77.325 1.946,-7.37 3.113,-10.678 3.113,-10.678 l 2.135,0.384 -0.402,27.845 v 0.016 c 0,3.977 -0.309,8.384 -0.858,10.375 -2.741,12.967 -5.734,24.165 -9.047,38.351 -0.623,3.152 -1.826,11.788 -2.259,24.966 v 0.006 c -0.453,13.544 -1.404,35.335 -1.431,49.864 l 6.615,1.522 -0.362,10.855 v 0.012 c 0.03,11.484 0.315,23.645 1.528,37.526 1.036,11.576 1.855,24.577 3.097,38.786 l 0.006,0.016 c 1.762,17.522 2.637,32.132 3.564,51.022 l 0.057,1.16 -15.89,-0.136 c -0.11,0.262 -0.224,0.646 -0.326,1.081 -0.213,0.876 -0.355,1.957 -0.355,2.66 0,1.11 0.132,1.821 0.549,2.644 0.412,0.825 1.168,1.792 2.45,3.148 0.88,0.938 1.774,1.79 2.471,2.391 0.355,0.297 0.664,0.539 0.87,0.675 0.075,0.052 0.109,0.069 0.148,0.093 h 0.183 l 0.299,0.222 c 2.7,2.066 4.824,4.521 7.313,6.787 h 0.148 l 0.321,0.469 c 0.903,1.333 1.321,1.819 1.876,2.065 0.561,0.247 1.597,0.333 3.709,0.339 2.529,0 4.996,-0.292 6.986,-0.772 1.993,-0.482 3.515,-1.219 4.058,-1.764 0.022,-0.028 0.412,-0.811 0.595,-2.631 0.183,-1.821 0.274,-4.619 0.297,-8.726 0.058,-8.831 1.15,-19.583 2.18,-29.213 1.924,-20.023 4.682,-38.706 6.244,-58.51 v -0.024 c 1.87,-19.004 2.266,-34.213 1.185,-43.878 -0.293,-2.593 -0.613,-4.989 -0.843,-6.763 -0.114,-0.888 -0.205,-1.621 -0.262,-2.152 -0.029,-0.27 -0.051,-0.487 -0.057,-0.67 -0.006,-0.092 -0.012,-0.171 -0.006,-0.28 0.006,-0.052 0.006,-0.115 0.028,-0.218 0.018,-0.102 -0.006,-0.264 0.309,-0.577 l 0.333,-0.339 16.417,0.544 -0.087,1.15 c 0,0 -1.12,14.42 -1.762,22.466 v 0.011 c -2.455,25.276 -0.223,55.273 0.526,81.761 v 0.01 c 0.161,7.594 0.11,11.83 -0.067,14.502 -0.178,2.677 -0.504,3.851 -0.813,5.029 -0.624,2.392 -1.408,4.63 -2.478,6.953 -0.818,2.993 -1.311,5.195 -1.013,6.455 0.155,0.64 0.429,1.075 1.059,1.534 0.634,0.451 1.67,0.88 3.209,1.213 h 0.006 c 4.665,0.984 9.831,3.049 14.181,7.078 l 0.005,0.006 0.006,0.012 c 3.015,2.872 5.441,3.404 9.16,2.065 3.698,-1.329 6.988,-2.821 10.02,-4.127 l -0.028,-2.488 c -0.051,-1.796 -0.303,-3.045 -0.669,-3.863 -0.366,-0.818 -0.801,-1.229 -1.465,-1.544 -1.327,-0.642 -3.812,-0.63 -7.256,-0.642 l -0.377,-0.006 -0.298,-0.234 c 0,0 -4.796,-3.623 -6.478,-8.046 l -0.098,-0.263 0.035,-0.274 c 4.498,-34.518 8.469,-60.857 12.795,-94.246 0.744,-14.764 -0.154,-26.455 -0.721,-34.987 l -0.063,-0.945 0.927,-0.199 c 7.175,-1.557 14.301,-2.713 21.064,-6.054 -0.114,-0.624 -0.224,-1.242 -0.441,-2.66 -0.291,-1.906 -0.675,-4.47 -1.128,-7.537 -0.904,-6.134 -2.075,-14.254 -3.318,-22.958 -2.489,-17.408 -5.259,-37.149 -6.729,-48.033 -2.633,-19.53 -4.218,-25.693 -3.708,-66.51 l 2.146,-0.315 c 6.74,21.367 16.394,63.271 24.142,92.667 2.506,0.607 5.722,1.55 5.722,1.55 l 0.779,0.24 v 0.819 c -0.024,4.178 0.772,8.526 0.795,8.64 0.263,0.9 1.459,2.392 3.015,3.692 1.563,1.305 3.451,2.471 4.853,3.101 l 0.613,0.275 0.468,8.412 c 2.713,19.833 8.024,36.754 24.933,52.175 l 0.571,0.52 -0.297,0.711 c -7.748,18.528 -13.607,36.004 -18.094,58.98 5.837,2.276 13.831,6.299 13.831,6.299 l 1.15,0.585 -0.76,1.041 c -4.103,5.614 -8.429,11.06 -8.407,18.3 0.108,7.118 2.575,10.299 4.985,16.915 l 0.039,0.126 c 1.231,5.31 1.546,14.706 0.109,19.65 l -0.189,0.64 -0.652,0.132 c 0,0 -1.179,0.235 -2.467,0.624 -0.64,0.201 -1.304,0.435 -1.831,0.676 -0.52,0.246 -0.886,0.543 -0.916,0.583 z"
   id="path837" /></svg>

<?xml version="1.0" encoding="UTF-8" standalone="no"?>
<!DOCTYPE svg PUBLIC "-//W3C//DTD SVG 1.1//EN" "http://www.w3.org/Graphics/SVG/1.1/DTD/svg11.dtd">
<svg width="100%" height="100%" viewBox="0 0 584 908" version="1.1" xmlns="http://www.w3.org/2000/svg" xmlns:xlink="http://www.w3.org/1999/xlink" xml:space="preserve" xmlns:serif="http://www.serif.com/" style="fill-rule:evenodd;clip-rule:evenodd;stroke-linejoin:round;stroke-miterlimit:2;">
    <path d="M291.583,907.671C291.388,907.382 0,476.351 0,291.583C0,130.654 130.654,0 291.583,0C452.517,0 583.171,130.654 583.171,291.583C583.171,476.351 291.778,907.382 291.583,907.671ZM332.65,558.576C332.65,558.597 332.41,559.192 332.283,559.914C332.153,560.67 332.061,561.604 331.998,562.501C331.913,563.783 331.917,564.36 331.907,564.951L351.35,566.759C351.35,566.759 351.602,566.804 352.254,566.605C352.908,566.41 353.857,565.963 354.938,564.882C356.324,563.474 356.873,562.759 357.84,561.025C358.354,552.367 358.218,547.406 357.919,544.367C357.616,541.306 357.147,540.122 357.015,538.531C356.249,532.66 356.454,525.278 356.454,525.278L356.466,525.146C357.691,516.975 361.926,510.891 367.207,504.878L367.557,504.488L372.558,504.666L371.716,506.223C368.689,511.842 366.549,516.997 366.549,523.733C366.549,527.372 368.329,531.939 368.346,531.973C370.085,535.377 372.082,540.03 374.171,542.828L374.149,542.8C375.527,544.527 375.968,546.994 375.917,549.65C375.86,552.304 375.275,555.171 374.297,557.729C374.045,558.387 373.558,558.77 373.09,559.046C372.625,559.32 372.134,559.503 371.676,559.635C371.229,559.767 371.15,559.755 370.829,559.812C370.772,560.298 370.68,560.905 370.64,562.033C370.611,562.793 370.617,563.566 370.692,564.12C370.727,564.396 370.778,564.618 370.818,564.727C370.829,564.756 370.829,564.75 370.835,564.756C370.8,564.727 371.127,564.916 371.613,565.053C372.105,565.191 372.775,565.335 373.547,565.455C375.098,565.701 377.079,565.888 379.093,565.992C381.101,566.101 383.155,566.124 384.86,566.049C386.537,565.975 387.91,565.746 388.339,565.575C390.125,564.579 391.584,562.862 393.214,560.727L393.255,560.67L393.301,560.625C394.662,559.223 395.16,558.627 395.343,557.861C395.526,557.095 395.4,555.795 395.046,553.18C394.691,550.554 393.026,546.067 392.253,543.743C390.485,538.445 388.985,531.624 390.267,526.983C391.47,522.622 396.024,511.584 398.21,506.64L398.485,506.016L399.172,505.988C401.066,505.914 403.201,505.754 404.991,505.514C406.525,505.301 407.538,504.975 408.053,504.77C407.658,491.237 406.576,476.21 404.54,462.843L406.548,462.081C411.349,469.571 414.05,480.043 417.169,489.148C417.832,489.274 422.113,490.109 425.478,490.487L426.456,490.595L426.456,502.521C428.711,502.555 430.449,502.285 432.052,501.627C433.785,500.907 435.622,499.682 437.969,498.172C437.981,498.022 437.992,497.931 437.997,497.628C438.014,496.661 437.969,494.807 437.723,491.442C434.953,460.943 422.095,427.415 394.657,408.155C393.959,407.846 393.466,407.359 393.112,406.952C392.722,406.501 392.476,406.094 392.476,406.094L392.299,405.79L392.763,399.428L393.581,399.261C398.416,398.3 402.273,397.253 406.816,395.589C406.794,395.016 406.714,393.161 406.714,389.528C406.714,384.539 407.641,381.723 407.743,381.436C409.106,376.047 407.663,370.553 404.231,365.346C395.985,357.328 386.285,354.136 372.844,357.586C367.173,359.165 362.085,364.773 359.602,370.622C356.249,381.757 360.551,390.111 364.231,393.579L364.775,394.089L364.501,394.782C364.501,394.782 363.31,397.889 362.298,399.605C361.284,401.322 358.99,404.114 358.99,404.114L358.383,404.865L357.559,404.361C354.143,402.244 349.925,398.403 347.042,393.516C342.224,385.345 339.436,374.781 337.034,366.948L336.993,366.805L336.987,366.651C336.908,363.028 336.611,359.52 335.74,356.769C334.87,354.022 333.514,352.104 331.242,351.223L331.013,351.132L330.853,350.96C330.853,350.96 327.918,347.932 327.185,343.15C325.76,333.85 323.775,323.379 318.516,285.605C315.866,267.872 312.651,249.927 307.472,226.946L307.472,226.93L307.466,226.912C304.794,212.801 303.237,205.11 302.122,200.646C301,196.183 300.394,195.09 299.443,193.751C298.986,193.111 297.338,191.892 295.873,191.016C294.414,190.146 293.144,189.523 293.12,189.518L262.105,177.672L262.105,167.298L263.216,167.31C275.085,167.412 285.178,161.769 286.322,161.117C282.236,151.95 284.016,143.584 285.91,135.824C287.879,127.757 289.785,120.346 285.579,112.421L285.573,112.409L285.567,112.404C279.696,100.753 268.503,96.536 256.498,95.957C255.937,95.947 255.376,95.947 254.816,95.953C246.399,96.095 238.147,98.493 232.11,103.145C225.666,108.117 221.667,115.579 222.439,126.023L222.439,126.034L222.445,126.046C222.559,128.238 222.76,131.195 222.685,134.062C222.604,136.935 222.313,139.717 221.169,141.753L221.129,141.828L221.071,141.896C218.404,145.283 216.156,147.801 215.549,148.489C219.909,153.094 226.542,157.918 232.504,161.432L233.077,161.769L232.624,171.876L195.545,187.514C195.545,187.514 195.539,187.514 195.539,187.519C192.747,188.807 191.012,190.266 189.541,194.489L189.536,194.501L146,332.838C146.738,333.335 148.438,334.429 150.91,335.378L151.734,335.693L151.603,336.568C151.397,337.936 150.653,339.647 149.965,341.157C149.302,342.622 148.713,343.75 148.673,343.825L148.673,343.831C146.303,349.541 147.329,358.456 148.152,365.1C149.41,368.138 150.739,369.626 152.879,371.434C157.782,372.16 162.338,370.782 165.863,368.859L166.556,355.377C166.205,355.103 165.811,354.863 165.302,354.593C164.981,354.428 164.632,354.251 164.301,353.849C163.969,353.449 163.815,352.711 163.992,352.162C163.98,352.195 164.077,351.744 164.14,351.258C164.203,350.771 164.272,350.171 164.335,349.592C164.455,348.442 164.547,347.371 164.547,347.371L164.62,346.503L169.954,345.741C178.023,322.32 185.925,300.266 197.135,268.416C199.081,261.046 200.248,257.738 200.248,257.738L202.383,258.122L201.981,285.967L201.981,285.983C201.981,289.96 201.672,294.367 201.123,296.358C198.382,309.325 195.389,320.523 192.076,334.709C191.453,337.861 190.25,346.497 189.817,359.675L189.817,359.681C189.364,373.225 188.413,395.016 188.386,409.545L195.001,411.067L194.639,421.922L194.639,421.934C194.669,433.418 194.954,445.579 196.167,459.46C197.203,471.036 198.022,484.037 199.264,498.246L199.27,498.262C201.032,515.784 201.907,530.394 202.834,549.284L202.891,550.444L187.001,550.308C186.891,550.57 186.777,550.954 186.675,551.389C186.462,552.265 186.32,553.346 186.32,554.049C186.32,555.159 186.452,555.87 186.869,556.693C187.281,557.518 188.037,558.485 189.319,559.841C190.199,560.779 191.093,561.631 191.79,562.232C192.145,562.529 192.454,562.771 192.66,562.907C192.735,562.959 192.769,562.976 192.808,563L192.991,563L193.29,563.222C195.99,565.288 198.114,567.743 200.603,570.009L200.751,570.009L201.072,570.478C201.975,571.811 202.393,572.297 202.948,572.543C203.509,572.79 204.545,572.876 206.657,572.882C209.186,572.882 211.653,572.59 213.643,572.11C215.636,571.628 217.158,570.891 217.701,570.346C217.723,570.318 218.113,569.535 218.296,567.715C218.479,565.894 218.57,563.096 218.593,558.989C218.651,550.158 219.743,539.406 220.773,529.776C222.697,509.753 225.455,491.07 227.017,471.266L227.017,471.242C228.887,452.238 229.283,437.029 228.202,427.364C227.909,424.771 227.589,422.375 227.359,420.601C227.245,419.713 227.154,418.98 227.097,418.449C227.068,418.179 227.046,417.962 227.04,417.779C227.034,417.687 227.028,417.608 227.034,417.499C227.04,417.447 227.04,417.384 227.062,417.281C227.08,417.179 227.056,417.017 227.371,416.704L227.704,416.365L244.121,416.909L244.034,418.059C244.034,418.059 242.914,432.479 242.272,440.525L242.272,440.536C239.817,465.812 242.049,495.809 242.798,522.297L242.798,522.307C242.959,529.901 242.908,534.137 242.731,536.809C242.553,539.486 242.227,540.66 241.918,541.838C241.294,544.23 240.51,546.468 239.44,548.791C238.622,551.784 238.129,553.986 238.427,555.246C238.582,555.886 238.856,556.321 239.486,556.78C240.12,557.231 241.156,557.66 242.695,557.993L242.701,557.993C247.366,558.977 252.532,561.042 256.882,565.071L256.887,565.077L256.893,565.089C259.908,567.961 262.334,568.493 266.053,567.154C269.751,565.825 273.041,564.333 276.073,563.027L276.045,560.539C275.994,558.743 275.742,557.494 275.376,556.676C275.01,555.858 274.575,555.447 273.911,555.132C272.584,554.49 270.099,554.502 266.655,554.49L266.278,554.484L265.98,554.25C265.98,554.25 261.184,550.627 259.502,546.204L259.404,545.941L259.439,545.667C263.937,511.149 267.908,484.81 272.234,451.421C272.978,436.657 272.08,424.966 271.513,416.434L271.45,415.489L272.377,415.29C279.552,413.733 286.678,412.577 293.441,409.236C293.327,408.612 293.217,407.994 293,406.576C292.709,404.67 292.325,402.106 291.872,399.039C290.968,392.905 289.797,384.785 288.554,376.081C286.065,358.673 283.295,338.932 281.825,328.048C279.192,308.518 277.607,302.355 278.117,261.538L280.263,261.223C287.003,282.59 296.657,324.494 304.405,353.89C306.911,354.497 310.127,355.44 310.127,355.44L310.906,355.68L310.906,356.499C310.882,360.677 311.678,365.025 311.701,365.139C311.964,366.039 313.16,367.531 314.716,368.831C316.279,370.136 318.167,371.302 319.569,371.932L320.182,372.207L320.65,380.619C323.363,400.452 328.674,417.373 345.583,432.794L346.154,433.314L345.857,434.025C338.109,452.553 332.25,470.029 327.763,493.005C333.6,495.281 341.594,499.304 341.594,499.304L342.744,499.889L341.984,500.93C337.881,506.544 333.555,511.99 333.577,519.23C333.685,526.348 336.152,529.529 338.562,536.145L338.601,536.271C339.832,541.581 340.147,550.977 338.71,555.921L338.521,556.561L337.869,556.693C337.869,556.693 336.69,556.928 335.402,557.317C334.762,557.518 334.098,557.752 333.571,557.993C333.051,558.239 332.685,558.536 332.655,558.576L332.65,558.576ZM332.65,558.576C332.65,558.575 332.65,558.575 332.649,558.576L332.65,558.576Z" style="fill:rgb(241,135,62);"/>
</svg>
